X:1
T: Walking on Sunshine - Chorus
C: Katrina and the Waves
V:Solo
L:1/4
Q:1/4=220
K:Gm
% abc lyrics transcription from benolds,ehzhang,fsaad
z3 G/2 G/2 | B G/2 E3/2 G2 F3 | z c2 B3 z G | B G/2 E3/2 G2 F3 |
w: Now I'm walk-ing on sun-shine whoa oh I'm walk-ing on sun-shine
z c2 B3 z G | B G/2 E3/2 G2 F3 |
w: woah oh I'm walk-ing on sun-shine
z c2 B3 z G | B G/2 B3/2 d | z2 d z |
w: woah oh And don't it feel good! Hey!
